svg/txt.svg

<?xml version="1.0" encoding="UTF-8"?>
<svg xmlns="http://www.w3.org/2000/svg" xmlns:xlink="http://www.w3.org/1999/xlink" width="23.040001" height="32" viewBox="0 0 23.040001 32">
<defs>
<linearGradient id="linear-pattern-0" gradientUnits="userSpaceOnUse" x1="11.84" y1="42.191002" x2="60.452" y2="42.191002" gradientTransform="matrix(0.32, 0, 0, -0.32, 0, 32.639999)">
<stop offset="0" stop-color="rgb(44.705882%, 56.862745%, 63.137255%)" stop-opacity="1"/>
<stop offset="1" stop-color="rgb(79.215686%, 83.529412%, 85.882353%)" stop-opacity="1"/>
</linearGradient>
<linearGradient id="linear-pattern-1" gradientUnits="userSpaceOnUse" x1="11.84" y1="53.931" x2="60.452" y2="53.931" gradientTransform="matrix(0.32, 0, 0, -0.32, 0, 32.639999)">
<stop offset="0" stop-color="rgb(44.705882%, 56.862745%, 63.137255%)" stop-opacity="1"/>
<stop offset="1" stop-color="rgb(79.215686%, 83.529412%, 85.882353%)" stop-opacity="1"/>
</linearGradient>
<linearGradient id="linear-pattern-2" gradientUnits="userSpaceOnUse" x1="11.84" y1="78.419998" x2="60.452" y2="78.419998" gradientTransform="matrix(0.32, 0, 0, -0.32, 0, 32.639999)">
<stop offset="0" stop-color="rgb(44.705882%, 56.862745%, 63.137255%)" stop-opacity="1"/>
<stop offset="1" stop-color="rgb(79.215686%, 83.529412%, 85.882353%)" stop-opacity="1"/>
</linearGradient>
<linearGradient id="linear-pattern-3" gradientUnits="userSpaceOnUse" x1="45.068001" y1="74.154999" x2="58.568001" y2="87.654999" gradientTransform="matrix(1, 0, 0, -1, 0, 102)">
<stop offset="0" stop-color="rgb(100%, 100%, 100%)" stop-opacity="1"/>
<stop offset="0.35" stop-color="rgb(98.039216%, 98.431373%, 98.431373%)" stop-opacity="1"/>
<stop offset="0.532" stop-color="rgb(92.941176%, 94.509804%, 95.686275%)" stop-opacity="1"/>
<stop offset="0.675" stop-color="rgb(86.666667%, 89.803922%, 91.372549%)" stop-opacity="1"/>
<stop offset="0.799" stop-color="rgb(78.039216%, 82.745098%, 85.490196%)" stop-opacity="1"/>
<stop offset="0.908" stop-color="rgb(67.843137%, 74.117647%, 78.039216%)" stop-opacity="1"/>
<stop offset="1" stop-color="rgb(57.254902%, 64.705882%, 69.019608%)" stop-opacity="1"/>
</linearGradient>
</defs>
<path fill="none" stroke-width="2" stroke-linecap="butt" stroke-linejoin="miter" stroke="rgb(44.313725%, 56.862745%, 63.137255%)" stroke-opacity="1" stroke-miterlimit="4" d="M 44.995118 1.000977 L 71.997072 27.697755 L 71.997072 98.999026 L 0 98.999026 L 0 1.000977 Z M 44.995118 1.000977 " transform="matrix(0.32, 0, 0, 0.32, 0, 0)"/>
<path fill-rule="nonzero" fill="rgb(29.803922%, 42.352941%, 48.235294%)" fill-opacity="1" d="M 5.152344 29.152344 L 5.152344 23.871094 L 3.265625 23.871094 L 3.265625 22.785156 L 8.351562 22.785156 L 8.351562 23.871094 L 6.464844 23.871094 L 6.464844 29.152344 Z M 8.511719 29.152344 L 10.6875 25.824219 L 8.703125 22.785156 L 10.238281 22.785156 L 11.519531 24.832031 L 12.769531 22.785156 L 14.273438 22.785156 L 12.289062 25.855469 L 14.464844 29.121094 L 12.894531 29.121094 L 11.488281 26.910156 L 10.046875 29.121094 L 8.511719 29.121094 Z M 16.609375 29.152344 L 16.609375 23.871094 L 14.71875 23.871094 L 14.71875 22.785156 L 19.808594 22.785156 L 19.808594 23.871094 L 17.921875 23.871094 L 17.921875 29.152344 Z M 16.609375 29.152344 "/>
<path fill-rule="nonzero" fill="url(#linear-pattern-0)" d="M 3.777344 18.496094 L 19.328125 18.496094 L 19.328125 19.808594 L 3.777344 19.808594 Z M 3.777344 18.496094 "/>
<path fill-rule="nonzero" fill="url(#linear-pattern-1)" d="M 3.777344 14.71875 L 19.328125 14.71875 L 19.328125 16.03125 L 3.777344 16.03125 Z M 3.777344 14.71875 "/>
<path fill-rule="nonzero" fill="url(#linear-pattern-2)" d="M 3.777344 6.910156 L 19.328125 6.910156 L 19.328125 8.222656 L 3.777344 8.222656 Z M 3.777344 6.910156 "/>
<path fill-rule="nonzero" fill="url(#linear-pattern-3)" stroke-width="2" stroke-linecap="butt" stroke-linejoin="bevel" stroke="rgb(44.313725%, 56.862745%, 63.137255%)" stroke-opacity="1" stroke-miterlimit="4" d="M 44.995118 1.000977 L 71.997072 27.697755 L 44.995118 27.697755 Z M 44.995118 1.000977 " transform="matrix(0.32, 0, 0, 0.32, 0, 0)"/>
</svg>

<svg role="img" viewBox="0 0 23.04 32" height="32" width="23.04" xmlns="http://www.w3.org/2000/svg"><defs><linearGradient gradientTransform="matrix(.32 0 0 -.32 0 32.64)" gradientUnits="userSpaceOnUse" id="400__394__258__252__txt-lp-1" x1="11.84" x2="60.452" y1="66.245" y2="66.245"><stop offset="0" stop-color="rgb(44.705882%, 56.862745%, 63.137255%)"/><stop offset="1" stop-color="rgb(79.215686%, 83.529412%, 85.882353%)"/></linearGradient><linearGradient gradientTransform="matrix(.32 0 0 -.32 0 32.64)" gradientUnits="userSpaceOnUse" id="401__395__259__253__linear-pattern-2" x1="11.84" x2="60.452" y1="42.191" y2="42.191"><stop offset="0" stop-color="rgb(44.705882%, 56.862745%, 63.137255%)"/><stop offset="1" stop-color="rgb(79.215686%, 83.529412%, 85.882353%)"/></linearGradient><linearGradient gradientTransform="matrix(.32 0 0 -.32 0 32.64)" gradientUnits="userSpaceOnUse" id="402__396__260__254__linear-pattern-3" x1="11.84" x2="60.452" y1="53.931" y2="53.931"><stop offset="0" stop-color="rgb(44.705882%, 56.862745%, 63.137255%)"/><stop offset="1" stop-color="rgb(79.215686%, 83.529412%, 85.882353%)"/></linearGradient><linearGradient gradientTransform="matrix(.32 0 0 -.32 0 32.64)" gradientUnits="userSpaceOnUse" id="403__397__261__255__linear-pattern-4" x1="11.84" x2="60.452" y1="78.42" y2="78.42"><stop offset="0" stop-color="rgb(44.705882%, 56.862745%, 63.137255%)"/><stop offset="1" stop-color="rgb(79.215686%, 83.529412%, 85.882353%)"/></linearGradient><linearGradient gradientTransform="matrix(1 0 0 -1 0 102)" gradientUnits="userSpaceOnUse" id="404__398__262__256__linear-pattern-5" x1="45.068" x2="58.568" y1="74.155" y2="87.655"><stop offset="0" stop-color="rgb(100%, 100%, 100%)"/><stop offset=".35" stop-color="rgb(98.039216%, 98.431373%, 98.431373%)"/><stop offset=".532" stop-color="rgb(92.941176%, 94.509804%, 95.686275%)"/><stop offset=".675" stop-color="rgb(86.666667%, 89.803922%, 91.372549%)"/><stop offset=".799" stop-color="rgb(78.039216%, 82.745098%, 85.490196%)"/><stop offset=".908" stop-color="rgb(67.843137%, 74.117647%, 78.039216%)"/><stop offset="1" stop-color="rgb(57.254902%, 64.705882%, 69.019608%)"/></linearGradient></defs><path d="m44.995 1.001 27.002 26.697v71.301H0V1.001Zm0 0" fill="url(#405__399__257__251__linear-pattern-0)" stroke="rgb(44.313725%, 56.862745%, 63.137255%)" stroke-width="2" transform="scale(.32)"/><path d="M5.152 29.152v-5.28H3.266v-1.087h5.086v1.086H6.465v5.281Zm3.36 0 2.175-3.328-1.984-3.039h1.535l1.282 2.047 1.25-2.047h1.503l-1.984 3.07 2.176 3.266h-1.57l-1.407-2.21-1.441 2.21H8.512Zm8.097 0v-5.28h-1.89v-1.087h5.09v1.086h-1.887v5.281Zm0 0" fill="rgb(29.803922%, 42.352941%, 48.235294%)"/><path d="M3.777 10.785h15.551v1.313H3.778Zm0 0" fill="url(#400__394__258__252__linear-pattern-1)"/><path d="M3.777 18.496h15.551v1.313H3.778Zm0 0" fill="url(#401__395__259__253__linear-pattern-2)"/><path d="M3.777 14.719h15.551v1.312H3.778Zm0 0" fill="url(#402__396__260__254__linear-pattern-3)"/><path d="M3.777 6.91h15.551v1.313H3.778Zm0 0" fill="url(#403__397__261__255__linear-pattern-4)"/><path d="m44.995 1.001 27.002 26.697H44.995Zm0 0" fill="url(#404__398__262__256__linear-pattern-5)" stroke="rgb(44.313725%, 56.862745%, 63.137255%)" stroke-linejoin="bevel" stroke-width="2" transform="scale(.32)"/></svg>
